proprietary/assets/icons/personen/hoofd-met-zuidwester.svg

<svg enable-background="new 0 0 64 64" height="64" viewBox="0 0 64 64" width="64" xmlns="http://www.w3.org/2000/svg"><path d="m0 0h64v64h-64z" fill="none"/><path d="m49.8 25.5c-4.7 1.3-10.1 2.8-14.4 4.2-7.5 2.5-13.7 6.4-18.4 10.5 1.4 3 2.4 5.9 2.6 8.5.2 2.8-1.9 11.2-1.9 11.2h22.3l-.1-5.9-5.5-2.8c-.3-.2-.2-.4-.2-.4s5.3 1.3 8.8 1.4 6.6-2.7 7.5-7c.9-4.1 1.4-8.1 1.4-8.1s1.7-.5 2.7-1.2 1.3-2 .7-2.9c-.6-.7-5-6.8-5.5-7.5zm5 3.2 4.3-5.7c-1.7.4-4.2 1.1-7.1 1.8zm-20.1-1.1c7.8-2.6 18.8-5.4 23.6-6.6l-9-7.2s-7.3-16.6-24.8-11.6c-14.2 4-14.7 22.7-14.7 22.7s-10.8 23.2-6.6 30.9c.1-.5.2-1.1.4-1.7 2.2-7.2 13.7-20.7 31.1-26.5zm-19.5 14.2c-5.3 4.9-8.5 9.9-9.5 13-.4 1.4-.3 2.2-.1 2.4 1.3 1.7 6.2.4 11.1-2.9.4-2.2.8-4.4.7-5.4-.2-2-1.1-4.5-2.2-7.1z"/></svg>

<?xml version="1.0" encoding="utf-8"?>
<!-- Generator: Adobe Illustrator 22.1.0, SVG Export Plug-In . SVG Version: 6.00 Build 0)  -->
<!DOCTYPE svg PUBLIC "-//W3C//DTD SVG 1.1//EN" "http://www.w3.org/Graphics/SVG/1.1/DTD/svg11.dtd">
<svg version="1.1" xmlns="http://www.w3.org/2000/svg" xmlns:xlink="http://www.w3.org/1999/xlink" x="0px" y="0px" width="64px"
	 height="64px" viewBox="0 0 64 64" style="enable-background:new 0 0 64 64;" xml:space="preserve">
<style type="text/css">
	.st0{fill:none;}
	.st1{fill:none;stroke:#000000;stroke-width:3;stroke-miterlimit:10;}
	.st2{fill:none;stroke:#000000;stroke-width:2;stroke-miterlimit:10;}
	.st3{stroke:#000000;stroke-width:3;stroke-miterlimit:10;}
	.st4{fill:#FFFFFF;}
	.st5{fill:#FFFFFF;stroke:#FFFFFF;stroke-width:4;stroke-miterlimit:10;}
	.st6{fill:none;stroke:#FFFFFF;stroke-width:2;stroke-miterlimit:10;}
	.st7{fill:#FFFFFF;stroke:#000000;stroke-width:3;stroke-linejoin:round;stroke-miterlimit:10;}
	.st8{stroke:#000000;stroke-width:3;stroke-linejoin:round;stroke-miterlimit:10;}
	.st9{fill:none;stroke:#FFFFFF;stroke-width:3;stroke-linecap:square;stroke-miterlimit:10;}
	.st10{fill:none;stroke:#000000;stroke-width:3;stroke-linecap:round;stroke-linejoin:round;stroke-miterlimit:10;}
	.st11{fill:#FFFFFF;stroke:#000000;stroke-width:3;stroke-miterlimit:10;}
	.st12{fill:#FFFFFF;stroke:#FFFFFF;stroke-width:6.4;stroke-miterlimit:10;}
	.st13{stroke:#FFFFFF;stroke-width:6.4;stroke-miterlimit:10;}
	.st14{fill:#FFFFFF;stroke:#FFFFFF;stroke-width:4.4;stroke-miterlimit:10;}
</style>
<g id="Box">
	<rect x="0" class="st0" width="64" height="64"/>
</g>
<g id="Icon_4_">
	<g>
		<g>
			<path d="M49.8,25.5c-4.7,1.3-10.1,2.8-14.4,4.2c-7.5,2.5-13.7,6.4-18.4,10.5c1.4,3,2.4,5.9,2.6,8.5c0.2,2.8-1.9,11.2-1.9,11.2H40
				l-0.1-5.9l-5.5-2.8c-0.3-0.2-0.2-0.4-0.2-0.4s5.3,1.3,8.8,1.4c3.5,0.1,6.6-2.7,7.5-7c0.9-4.1,1.4-8.1,1.4-8.1s1.7-0.5,2.7-1.2
				s1.3-2,0.7-2.9C54.7,32.3,50.3,26.2,49.8,25.5z M54.8,28.7l4.3-5.7c-1.7,0.4-4.2,1.1-7.1,1.8L54.8,28.7z M34.7,27.6
				c7.8-2.6,18.8-5.4,23.6-6.6l-9-7.2c0,0-7.3-16.6-24.8-11.6C10.3,6.2,9.8,24.9,9.8,24.9S-1,48.1,3.2,55.8c0.1-0.5,0.2-1.1,0.4-1.7
				C5.8,46.9,17.3,33.4,34.7,27.6z M15.2,41.8c-5.3,4.9-8.5,9.9-9.5,13c-0.4,1.4-0.3,2.2-0.1,2.4c1.3,1.7,6.2,0.4,11.1-2.9
				c0.4-2.2,0.8-4.4,0.7-5.4C17.2,46.9,16.3,44.4,15.2,41.8z"/>
		</g>
	</g>
</g>
</svg>
